static/belza-digital-logo-h.svg

<svg xmlns="http://www.w3.org/2000/svg" viewBox="0, 0, 2016, 464"><path d="M267.998 335.894h-96V336h-63.891l95.683 95.683c16.79 16.79 44.011 16.79 60.8 0l167.2-167.2c16.79-16.789 16.79-44.011 0-60.8l-7.6-7.6h.001l-144.4-144.4h-.001l-15.2-15.2c-7.328-6.967-16.162-11.326-26.279-12.395-2.747 0-5.501-.198-8.241 0-9.918.713-19.238 5.549-26.28 12.395l-7.792 7.792v147.619h72c26.51 0 48 21.49 48 48v48c0 26.509-21.49 48-48 48z" fill-opacity=".5"/><path d="M84 311.894l-47.41-47.411c-16.789-16.789-16.789-44.01 0-60.8L171.998 68.275v147.619h96c13.255 0 24 10.745 24 24v48c0 13.255-10.745 24-24 24H84z"/><g fill-opacity=".5"><path d="M1464 120v95.894h-96c-13.347 0-24 10.745-24 24v48c0 13.255 10.653 24 24 24h96v24h-96c-26.694 0-48-21.491-48-48v-48c0-26.51 21.306-48 48-48h72V120h24zM1488 191.894h24v144h-24v-144zM1680 191.894v24h-96c-13.255 0-24 10.745-24 24v48c0 13.255 10.745 24 24 24h96v48c0 26.51-21.49 48-48 48h-96v-24h96c13.832-.426 23.312-10.379 24-24v-24h-72c-26.51 0-48-21.491-48-48v-48c0-26.51 21.49-48 48-48h96zM1704 191.894h24v144h-24v-144zM1776 120v36h36v24h-36v155.894h-24V120h24zM1992 120v215.894h-24V120h24z"/><path d="M1944 335.894h-96c-26.51 0-48-21.491-48-48v-48c0-26.51 21.49-48 48-48h48c26.51 0 48 21.49 48 48v96zm-24-96c0-13.255-10.745-24-24-24h-48c-13.255 0-24 10.745-24 24v48c0 13.255 10.745 24 24 24h72v-72z"/></g><path d="M540 215.894V120h24v71.894h72c26.51 0 48 21.49 48 48v48c0 26.509-21.49 48-48 48h-96v-24h96c13.255 0 24-10.745 24-24v-48c0-13.255-10.745-24-24-24h-96zM804 191.894c18.443.151 36.451 11.056 43.745 28.306l-.005.002c2.998 6.153 3.964 12.929 4.26 19.692v4.507l-119.288 49.216c2.623 11.102 12.582 17.002 23.288 18.277h96v24h-96c-20.441-.119-39.669-13.859-45.793-33.558l.056-.023c-1.694-4.619-2.025-9.552-2.263-14.419v-48c0-26.51 21.49-48 48-48h48zm21.492 37.466c-4.06-8.974-12.162-12.477-21.492-13.466h-48c-13.255 0-23.994 10.745-23.994 24v28.059l93.481-38.59.005-.003zM900 120v215.894h-24V120h24zM1224 335.894h-96c-26.51 0-48-21.491-48-48v-48c0-26.51 21.49-48 48-48h48c26.51 0 48 21.49 48 48v96zm-24-96c0-13.255-10.745-24-24-24h-48c-13.255 0-24 10.745-24 24v48c0 13.255 10.745 24 24 24h72v-72zM1065.472 191.894l-90.426 120H1068v24H926.909l90.427-120H924v-24h141.472z"/></svg>

<?xml version="1.0" encoding="UTF-8"?>
<!DOCTYPE svg PUBLIC "-//W3C//DTD SVG 1.1//EN" "http://www.w3.org/Graphics/SVG/1.1/DTD/svg11.dtd">
<svg version="1.1" xmlns="http://www.w3.org/2000/svg" xmlns:xlink="http://www.w3.org/1999/xlink" viewBox="0, 0, 2016, 464" fill="#000">
<path d="M267.998,335.894 L171.998,335.894 L171.998,336 L108.107,336 L203.79,431.683 C220.58,448.473 247.801,448.473 264.59,431.683 L431.79,264.483 C448.58,247.694 448.58,220.472 431.79,203.683 L424.19,196.083 L424.191,196.083 L279.791,51.683 L279.79,51.683 L264.59,36.483 C257.262,29.516 248.428,25.157 238.311,24.088 C235.564,24.088 232.81,23.89 230.07,24.088 C220.152,24.801 210.832,29.637 203.79,36.483 L195.998,44.275 L195.998,191.894 L267.998,191.894 C294.508,191.894 315.998,213.384 315.998,239.894 L315.998,287.894 C315.998,314.403 294.508,335.894 267.998,335.894 z" fill-opacity="0.5"/>
<path d="M84,311.894 L36.59,264.483 C19.801,247.694 19.801,220.473 36.59,203.683 L171.998,68.275 L171.998,215.894 L267.998,215.894 C281.253,215.894 291.998,226.639 291.998,239.894 L291.998,287.894 C291.998,301.149 281.253,311.894 267.998,311.894 L84,311.894 z"/>
<g fill-opacity="0.5">
<path d="M1464,120 L1464,215.894 L1368,215.894 C1354.653,215.894 1344,226.639 1344,239.894 L1344,287.894 C1344,301.149 1354.653,311.894 1368,311.894 L1464,311.894 L1464,335.894 L1368,335.894 C1341.306,335.894 1320,314.403 1320,287.894 L1320,239.894 C1320,213.384 1341.306,191.894 1368,191.894 L1440,191.894 L1440,120 L1464,120 z"/>
<path d="M1488,191.894 L1512,191.894 L1512,335.894 L1488,335.894 L1488,191.894 z"/>
<path d="M1680,191.894 L1680,215.894 L1584,215.894 C1570.745,215.894 1560,226.639 1560,239.894 L1560,287.894 C1560,301.149 1570.745,311.894 1584,311.894 L1680,311.894 L1680,335.894 L1680,335.894 L1680,359.894 C1680,386.404 1658.51,407.894 1632,407.894 L1536,407.894 L1536,383.894 L1632,383.894 C1645.832,383.468 1655.312,373.515 1656,359.894 L1656,335.894 L1584,335.894 C1557.49,335.894 1536,314.403 1536,287.894 L1536,239.894 C1536,213.384 1557.49,191.894 1584,191.894 L1680,191.894 z"/>
<path d="M1704,191.894 L1728,191.894 L1728,335.894 L1704,335.894 L1704,191.894 z"/>
<path d="M1776,120 L1776,156 L1812,156 L1812,180 L1776,180 L1776,335.894 L1752,335.894 L1752,120 L1776,120 z"/>
<path d="M1992,120 L1992,335.894 L1968,335.894 L1968,120 L1992,120 z"/>
<path d="M1944,335.894 L1848,335.894 C1821.49,335.894 1800,314.403 1800,287.894 L1800,239.894 C1800,213.384 1821.49,191.894 1848,191.894 L1896,191.894 C1922.51,191.894 1944,213.384 1944,239.894 L1944,335.894 z M1920,239.894 C1920,226.639 1909.255,215.894 1896,215.894 L1848,215.894 C1834.745,215.894 1824,226.639 1824,239.894 L1824,287.894 C1824,301.149 1834.745,311.894 1848,311.894 L1920,311.894 L1920,239.894 z"/>
</g>
<g>
<path d="M540,215.894 L540,120 L564,120 L564,191.894 L636,191.894 C662.51,191.894 684,213.384 684,239.894 L684,287.894 C684,314.403 662.51,335.894 636,335.894 L540,335.894 L540,311.894 L636,311.894 C649.255,311.894 660,301.149 660,287.894 L660,239.894 C660,226.639 649.255,215.894 636,215.894 L540,215.894 z"/>
<path d="M804,191.894 C822.443,192.045 840.451,202.95 847.745,220.2 L847.74,220.202 C850.738,226.355 851.704,233.131 852,239.894 L852,244.401 L732.712,293.617 C735.335,304.719 745.294,310.619 756,311.894 L852,311.894 L852,335.894 L756,335.894 C735.559,335.775 716.331,322.035 710.207,302.336 L710.263,302.313 C708.569,297.694 708.238,292.761 708,287.894 L708,239.894 C708,213.384 729.49,191.894 756,191.894 L804,191.894 z M825.492,229.36 C821.432,220.386 813.33,216.883 804,215.894 L756,215.894 C742.745,215.894 732.006,226.639 732.006,239.894 L732.006,267.857 L732.006,267.857 L732.006,267.953 L825.487,229.363 L825.492,229.36 z"/>
<path d="M900,120 L900,335.894 L876,335.894 L876,120 L900,120 z"/>
<path d="M1224,335.894 L1128,335.894 C1101.49,335.894 1080,314.403 1080,287.894 L1080,239.894 C1080,213.384 1101.49,191.894 1128,191.894 L1176,191.894 C1202.51,191.894 1224,213.384 1224,239.894 L1224,335.894 z M1200,239.894 C1200,226.639 1189.255,215.894 1176,215.894 L1128,215.894 C1114.745,215.894 1104,226.639 1104,239.894 L1104,287.894 C1104,301.149 1114.745,311.894 1128,311.894 L1200,311.894 L1200,239.894 z"/>
<path d="M1065.472,191.894 L975.046,311.894 L1068,311.894 L1068,335.894 L926.909,335.894 L1017.336,215.894 L924,215.894 L924,191.894 L1065.472,191.894 z"/>
</g>
</svg>
